X:1
T:James Gibb editions
T:Psalm 55 (Becker) - Schütz
%%score [ ( 1 2 ) ( 3 4 ) ]
L:1/8
Q:1/4=100
M:2/2
K:F
V:1 treble nm="Soprano Alto"
V:2 treble 
V:3 bass nm="Tenor Bass"
V:4 bass 
V:1
"^Cornelius Becker\n(1561-1604)""^Psalm 55, SWV 152""^Heinrich Schütz\n(1585-1672)" G8 | c4 d4 | %2
w: ~Er-|hör mein|
w: ||
w: ich|klag, ich|
 B4 G4 | (c3 B A2) G2 | F4 f4 | d6 B2 | c2 d2 _e4 |[M:2/2] d8 :| B8 | A4 B4 | c4 d4 | G4 ^F4 | %12
w: Gott, du|treu\- * * er|Gott, wend|dich nicht|von mein'm Fle-|hen,|||||
w: ||||||der|Gott- los|tut mir|gro- ßen|
w: heul, merk|auf * * mein|Not, zag-|haft vor|dir ich ste-|he,|||||
 G6 D2 | (G3 A B2) c2 | A4 B4 | c4 d4 | B6 _e2 | (d3 c B2) A2 | B2 G2 ^F4 | G8 |] %20
w: ||Tück macht|mir sehr|bang, be-|schwe\- * * ret|mich mit Lü-|gen.|
w: Drang, des|Fein\- * * des|||||||
w: ||||||||
V:2
 D8 | F4 F4 | _E4 D4 | (F3 D F2) E2 | F4 D4 | F6 G2 | G2 G2 G4 |[M:2/2] G8 :| G8 | ^F4 G4 | G4 G4 | %11
 _E4 D4 | D6 B,2 | (D2 _EF G2) E2 | D4 D4 | F4 F4 | _E6 G2 | F6 F2 | F2 _E2 D4 | D8 |] %20
V:3
 B,8 | A,4 B,4 | G,4 B,4 | (A,3 B, C2) C2 | C4 B,4 | (B,3 C D2 D2 | _E2) D2 C4 |[M:2/2] =B,8 :| %8
 D8 | D4 D4 | _E4 D4 | C4 A,4 | G,6 G,2 | (B,3 A, G,2) G,2 | %14
"^2. Mein Herz im Leib sich ängst und quält, in Todesfurcht ich schwebe,\nSchrecken und Zittern mich anfällt, Grausen hat mich umgeben,\ngroß Finsternis bedecket mich, mein Herzeleid das mehret sich,\nwo soll ich mich hinkehren?\n\n3. Ach, das ich mich ergeben könnt, dem Unglück zu entfliehen,\nwie ein Täublein wollt ich geschwind hinfliehen, da ich bliebe,\nich wollt eilen, daß ich entrinn, vor Sturm und Wetterungestüm\nmich sichern in der Wüsten.\n\n10. Dein Anliegen wirf allzumal getrost auf Gott den Herren,\ner wird dich recht versorgen wohl und allezeit ernähren.\nWer auf Gott setzt sein Zuversicht, den wird der treue Vater nicht\newig in Unruh lassen." F,4 F,4 | %15
 A,4 B,4 | G,6 B,2 | B,6 C2 | D2 C2 A,4 | =B,8 |] %20
V:4
 G,8 | F,4 B,,4 | _E,4 G,4 | (F,3 G, F,2) C,2 | F,4 B,,4 | B,6 G,2 | C2 =B,2 C4 |[M:2/2] G,8 :| %8
 G,8 | D,4 G,4 | C,4 =B,,4 | C,4 D,4 | G,,6 G,2 | (G,3 F, _E,2) C,2 | D,4 B,,4 | F,4 B,,4 | %16
 _E,6 E,2 | (B,,3 C, D,2) F,2 | B,,2 C,2 D,4 | G,,8 |] %20

